groups/nitrogen/hydroxamic_acid.svg

<svg height="256" viewBox="0 0 256 256" width="256" xmlns="http://www.w3.org/2000/svg"><path d="m0 0h256v256h-256z" fill="#fff"/><g fill="none" stroke-width="2"><path d="m227 139.7-54.8-31.6" stroke="#000"/><path d="m176.9 110.9-.1-45" stroke="#000"/><path d="m167.4 110.9-.1-45" stroke="#000"/><path d="m172.2 108.1-41.3 24" stroke="#000"/><path d="m103.9 132.1-27.9-16" stroke="#000"/><path d="m117.5 160.9v28.8" stroke="#000"/><path d="m174.9 109.7-2.7-1.6-2.1 1.2" stroke="#000" stroke-miterlimit="10"/><path d="m242.8 112.224c-2.058-1.182-3.634 1.562-1.576 2.744 2.057 1.182.481 3.926-1.577 2.743-2.058-1.182-3.634 1.562-1.576 2.744 2.057 1.182.481 3.926-1.577 2.743-2.058-1.182-3.634 1.562-1.576 2.744 2.057 1.182.481 3.926-1.577 2.743-2.057-1.182-3.634 1.562-1.576 2.744 2.057 1.182.481 3.926-1.577 2.743-2.057-1.182-3.634 1.561-1.576 2.744 2.057 1.182.481 3.926-1.577 2.743-2.057-1.182-3.634 1.561-1.576 2.744 2.057 1.182.481 3.926-1.577 2.743-2.057-1.182-3.634 1.561-1.576 2.744 2.057 1.182.481 3.926-1.577 2.743-2.057-1.182-3.634 1.561-1.576 2.744 2.057 1.182.481 3.926-1.577 2.743-2.057-1.182-3.634 1.561-1.576 2.744 2.057 1.182.481 3.926-1.577 2.743-2.057-1.182-3.634 1.561-1.576 2.744 2.058 1.182.481 3.926-1.577 2.743" stroke="#7f7f7f"/></g><text font-family="sans-serif" font-size="37" x="160.6" y="63.8">O</text><text font-family="sans-serif" font-size="37" x="106" y="158.9">N</text><text font-family="sans-serif" font-size="37" x="12.8" y="127.3">H</text><text font-family="sans-serif" font-size="25" x="39" y="142.5">3</text><text font-family="sans-serif" font-size="37" x="51.2" y="127.3">C</text><text font-family="sans-serif" font-size="37" x="106.2" y="222.1">O</text><text font-family="sans-serif" font-size="37" x="132.4" y="222.1">H</text></svg>

<?xml version='1.0' encoding='iso-8859-1'?>
<svg version='1.1' baseProfile='full'
              xmlns='http://www.w3.org/2000/svg'
                      xmlns:rdkit='http://www.rdkit.org/xml'
                      xmlns:xlink='http://www.w3.org/1999/xlink'
                  xml:space='preserve'
width='256px' height='256px' viewBox='0 0 256 256'>
<!-- END OF HEADER -->
<rect style='opacity:1.0;fill:#FFFFFF;stroke:none' width='256.0' height='256.0' x='0.0' y='0.0'> </rect>
<path class='bond-0 atom-0 atom-1' d='M 227.0,139.7 L 172.2,108.1' style='fill:none;fill-rule:evenodd;stroke:#000000;stroke-width:2.0px;stroke-linecap:butt;stroke-linejoin:miter;stroke-opacity:1' />
<path class='bond-1 atom-1 atom-2' d='M 176.9,110.9 L 176.8,65.9' style='fill:none;fill-rule:evenodd;stroke:#000000;stroke-width:2.0px;stroke-linecap:butt;stroke-linejoin:miter;stroke-opacity:1' />
<path class='bond-1 atom-1 atom-2' d='M 167.4,110.9 L 167.3,65.9' style='fill:none;fill-rule:evenodd;stroke:#000000;stroke-width:2.0px;stroke-linecap:butt;stroke-linejoin:miter;stroke-opacity:1' />
<path class='bond-2 atom-1 atom-3' d='M 172.2,108.1 L 130.9,132.1' style='fill:none;fill-rule:evenodd;stroke:#000000;stroke-width:2.0px;stroke-linecap:butt;stroke-linejoin:miter;stroke-opacity:1' />
<path class='bond-3 atom-3 atom-4' d='M 103.9,132.1 L 76.0,116.1' style='fill:none;fill-rule:evenodd;stroke:#000000;stroke-width:2.0px;stroke-linecap:butt;stroke-linejoin:miter;stroke-opacity:1' />
<path class='bond-4 atom-3 atom-5' d='M 117.5,160.9 L 117.5,189.7' style='fill:none;fill-rule:evenodd;stroke:#000000;stroke-width:2.0px;stroke-linecap:butt;stroke-linejoin:miter;stroke-opacity:1' />
<path d='M 174.9,109.7 L 172.2,108.1 L 170.1,109.3' style='fill:none;stroke:#000000;stroke-width:2.0px;stroke-linecap:butt;stroke-linejoin:miter;stroke-miterlimit:10;stroke-opacity:1;' />
<path class='atom-1' d='M242.8,112.224 C240.742,111.042 239.166,113.786 241.224,114.968 C243.281,116.15 241.705,118.894 239.647,117.711 C237.589,116.529 236.013,119.273 238.071,120.455 C240.128,121.637 238.552,124.381 236.494,123.198 C234.436,122.016 232.86,124.76 234.918,125.942 C236.975,127.124 235.399,129.868 233.341,128.685 C231.284,127.503 229.707,130.247 231.765,131.429 C233.822,132.611 232.246,135.355 230.188,134.172 C228.131,132.99 226.554,135.733 228.612,136.916 C230.669,138.098 229.093,140.842 227.035,139.659 C224.978,138.477 223.401,141.22 225.459,142.403 C227.516,143.585 225.94,146.329 223.882,145.146 C221.825,143.964 220.248,146.707 222.306,147.89 C224.363,149.072 222.787,151.816 220.729,150.633 C218.672,149.451 217.095,152.194 219.153,153.377 C221.21,154.559 219.634,157.303 217.576,156.12 C215.519,154.938 213.942,157.681 216,158.864 C218.057,160.046 216.481,162.79 214.423,161.607 C212.366,160.425 210.789,163.168 212.847,164.351 C214.905,165.533 213.328,168.277 211.27,167.094' style='fill:none;stroke:#7F7F7F;stroke-width:2.0px;stroke-linecap:butt;stroke-linejoin:miter;stroke-opacity:1' />
<text x='160.6' y='63.8' class='atom-2' style='font-size:37px;font-style:normal;font-weight:normal;fill-opacity:1;stroke:none;font-family:sans-serif;text-anchor:start;fill:#000000' >O</text>
<text x='106.0' y='158.9' class='atom-3' style='font-size:37px;font-style:normal;font-weight:normal;fill-opacity:1;stroke:none;font-family:sans-serif;text-anchor:start;fill:#000000' >N</text>
<text x='12.8' y='127.3' class='atom-4' style='font-size:37px;font-style:normal;font-weight:normal;fill-opacity:1;stroke:none;font-family:sans-serif;text-anchor:start;fill:#000000' >H</text>
<text x='39.0' y='142.5' class='atom-4' style='font-size:25px;font-style:normal;font-weight:normal;fill-opacity:1;stroke:none;font-family:sans-serif;text-anchor:start;fill:#000000' >3</text>
<text x='51.2' y='127.3' class='atom-4' style='font-size:37px;font-style:normal;font-weight:normal;fill-opacity:1;stroke:none;font-family:sans-serif;text-anchor:start;fill:#000000' >C</text>
<text x='106.2' y='222.1' class='atom-5' style='font-size:37px;font-style:normal;font-weight:normal;fill-opacity:1;stroke:none;font-family:sans-serif;text-anchor:start;fill:#000000' >O</text>
<text x='132.4' y='222.1' class='atom-5' style='font-size:37px;font-style:normal;font-weight:normal;fill-opacity:1;stroke:none;font-family:sans-serif;text-anchor:start;fill:#000000' >H</text>
</svg>
